; HEADER_BLOCK_START
; generated by OrcaSlicer 2.1.1 on 2025-11-13 at 14:33:09
; total layer number: 27
; filament_density: 1.24
; filament_diameter: 1.75
; max_z_height: 5.40
; HEADER_BLOCK_END

; THUMBNAIL_BLOCK_START

;
; THUMBNAIL_BLOCK_END

; THUMBNAIL_BLOCK_START

;
; THUMBNAIL_BLOCK_END

; external perimeters extrusion width = 0.45mm
; perimeters extrusion width = 0.45mm
; infill extrusion width = 0.45mm
; solid infill extrusion width = 0.45mm
; top infill extrusion width = 0.40mm
; first layer extrusion width = 0.42mm

; external perimeters extrusion width = 0.45mm
; perimeters extrusion width = 0.45mm
; infill extrusion width = 0.45mm
; solid infill extrusion width = 0.45mm
; top infill extrusion width = 0.40mm
; first layer extrusion width = 0.42mm

; external perimeters extrusion width = 0.45mm
; perimeters extrusion width = 0.45mm
; infill extrusion width = 0.45mm
; solid infill extrusion width = 0.45mm
; top infill extrusion width = 0.40mm
; first layer extrusion width = 0.42mm

; external perimeters extrusion width = 0.45mm
; perimeters extrusion width = 0.45mm
; infill extrusion width = 0.45mm
; solid infill extrusion width = 0.45mm
; top infill extrusion width = 0.40mm
; first layer extrusion width = 0.42mm

; external perimeters extrusion width = 0.45mm
; perimeters extrusion width = 0.45mm
; infill extrusion width = 0.45mm
; solid infill extrusion width = 0.45mm
; top infill extrusion width = 0.40mm
; first layer extrusion width = 0.42mm

; external perimeters extrusion width = 0.45mm
; perimeters extrusion width = 0.45mm
; infill extrusion width = 0.45mm
; solid infill extrusion width = 0.45mm
; top infill extrusion width = 0.40mm
; first layer extrusion width = 0.42mm

; EXECUTABLE_BLOCK_START
M73 P0 R63
M201 X500 Y500 Z100 E5000
M203 X500 Y500 Z10 E60
M204 P500 R1000 T500
M205 X8.00 Y8.00 Z0.40 E5.00 ; sets the jerk limits, mm/sec
;TYPE:Custom
G90 ; use absolute coordinates
M83 ; extruder relative mode
M104 S150 ; set temporary nozzle temp to prevent oozing during homing
M140 S60 ; set final bed temp
G4 S30 ; allow partial nozzle warmup
G28 ; home all axis and restore leveling
G1 Z50 F240
G1 X2.0 Y10 F3000
M104 S220 ; set final nozzle temp
M190 S60 ; wait for bed temp to stabilize
M109 S220 ; wait for nozzle temp to stabilize
G1 Z0.28 F240
G92 E0
G1 X2.0 Y140 E10 F1500 ; prime the nozzle
M73 P0 R62
G1 X2.3 Y140 F5000
G92 E0
G1 X2.3 Y10 E10 F1200 ; prime the nozzle
G92 E0
G90
G21
M83 ; use relative distances for extrusion
; filament start gcode
M900 K0.02; Override pressure advance value
M106 S0
;LAYER_CHANGE
;Z:0.2
;HEIGHT:0.2
;BEFORE_LAYER_CHANGE
;0.2
G92 E0

G1 E-1.4 F1800
;_SET_FAN_SPEED_CHANGING_LAYER
G1 Z.4 F9000
G1 X81.282 Y86.647
G1 Z.4
M73 P1 R62
G1 Z.2
G1 E1.4 F1800
;TYPE:Skirt
;WIDTH:0.42
G1 F2386.764
G1 X82.535 Y85.876 E.06456
G1 X83.3 Y85.768 E.03391
G1 X136.7 Y85.768 E2.34405
G1 X138.117 Y86.161 E.06456
G1 X138.718 Y86.647 E.03391
G1 X143.792 Y92.151 E.3286
G1 X144.092 Y92.6 E.0237
G1 X144.483 Y93.445 E.04086
G1 X144.702 Y94.349 E.04086
G1 X144.754 Y95.009 E.02907
G1 X144.754 Y131.478 E1.60082
G1 X144.361 Y132.895 E.06456
G1 X143.295 Y133.908 E.06456
G1 X142 Y134.232 E.0586
G1 X78 Y134.232 E2.80935
G1 X76.583 Y133.839 E.06456
G1 X75.569 Y132.773 E.06456
G1 X75.246 Y131.478 E.0586
G1 X75.246 Y95.009 E1.60082
G1 X75.298 Y94.349 E.02907
G1 X75.403 Y93.82 E.0237
G1 X75.723 Y92.946 E.04086
G1 X76.208 Y92.151 E.04086
G1 X81.255 Y86.677 E.32685
G1 X81.533 Y86.932 F9000
G1 F2386.764
G1 X81.559 Y86.904 E.00169
G1 X83.3 Y86.145 E.08338
G1 X136.7 Y86.145 E2.34405
G1 X138.441 Y86.904 E.08338
G1 X143.5 Y92.39 E.32759
G1 X144.122 Y93.554 E.05792
G1 X144.366 Y94.776 E.05471
G1 X144.377 Y131.478 E1.61104
G1 X143.985 Y132.785 E.05989
G1 X142.94 Y133.661 E.05989
G1 X142 Y133.855 E.04212
G1 X78 Y133.855 E2.80935
G1 X76.693 Y133.463 E.05989
G1 X75.817 Y132.418 E.05989
G1 X75.623 Y131.478 E.04212
G1 X75.673 Y94.386 E1.62817
G1 X76.056 Y93.123 E.05792
G1 X76.5 Y92.39 E.03762
G1 X81.505 Y86.962 E.32414
; printing object tanklink.stl id:4981036404796437809 copy 0
G1 E-.64584 F1800
;WIPE_START
G1 F2386.764
G1 X81.559 Y86.904 E-.05924
G1 X82.403 Y86.536 E-.69492
;WIPE_END
G1 Z.6 F9000
G1 X93.793 Y117.678 Z.6
G1 Z.2
G1 E1.4 F1800
;TYPE:Inner wall
;WIDTH:0.419999
G1 F900
G1 X96.002 Y117.678 E.097
G1 X96.501 Y117.781 E.02235
G1 X96.827 Y117.983 E.01683
G1 X97.089 Y118.263 E.01683
G1 X97.247 Y118.612 E.01683
G1 X97.313 Y119.094 E.02134
G1 X97.313 Y130.253 E.48984
G1 X93.687 Y130.253 E.15916
G1 X93.673 Y126.746 E.15396
G1 X93.571 Y126.548 E.00977
G1 X93.786 Y126.491 E.00977
G1 X93.887 Y126.419 E.00545
G1 X94.049 Y126.164 E.01325
G1 X94.074 Y126 E.00729
G1 X94.086 Y117.971 E.35242
G1 X93.821 Y117.706 E.01645
;WIPE_START
G1 X94.821 Y117.693 E-1.4
;WIPE_END
G1 Z.6 F9000
G1 X83.733 Y117.415 Z.6
G1 Z.2
G1 E1.4 F1800
G1 F900
G1 X83.987 Y117.112 E.01738
G1 X83.987 Y113.728 E.14854
G1 X92.013 Y113.728 E.3523
G1 X92.013 Y117.112 E.14854
G1 X92.307 Y117.406 E.01825
G1 X83.773 Y117.415 E.37462
;WIPE_START
G1 X83.987 Y117.112 E-.52007
G1 X83.987 Y116.484 E-.87993
;WIPE_END
G1 Z.6 F9000
G1 X82.182 Y117.678 Z.6
G1 Z.2
G1 E1.4 F1800
G1 F900
G1 X81.926 Y117.982 E.01743
G1 X81.914 Y126.087 E.3558
G1 X82.009 Y126.324 E.01122
G1 X82.217 Y126.512 E.01229
G1 X82.418 Y126.561 E.0091
G1 X82.326 Y126.747 E.0091
G1 X82.313 Y126.869 E.0054
G1 X82.313 Y130.253 E.14853
G1 X78.687 Y130.253 E.15916
G1 X78.687 Y118.988 E.49448
G1 X78.79 Y118.489 E.02235
G1 X78.993 Y118.164 E.01683
G1 X79.272 Y117.902 E.01683
G1 X79.622 Y117.743 E.01683
G1 X80.034 Y117.678 E.01832
G1 X82.142 Y117.678 E.09253
;WIPE_START
G1 X81.926 Y117.982 E-.52157
G1 X81.925 Y118.609 E-.87843
;WIPE_END
G1 Z.6 F9000
G1 X93.615 Y117.863 Z.6
G1 Z.2
G1 E1.4 F1800
;TYPE:Outer wall
;WIDTH:0.446043
G1 F900
G1 X93.709 Y117.971 E.00671
;WIDTH:0.419999
G1 X93.697 Y125.999 E.35242
G1 X93.601 Y126.163 E.00833
;WIDTH:0.448933
G1 X93.361 Y126.19 E.01141
;WIDTH:0.477867
G1 X93.121 Y126.217 E.01222
G1 X82.878 Y126.225 E.51862
;WIDTH:0.472312
G1 X82.635 Y126.201 E.01221
;WIDTH:0.446156
G1 X82.392 Y126.178 E.01146
;WIDTH:0.419999
G1 X82.291 Y126.039 E.00752
G1 X82.303 Y117.982 E.35368
;WIDTH:0.450686
G1 X82.379 Y117.874 E.00624
;WIDTH:0.481373
G1 X82.454 Y117.766 E.00671
G1 X83.422 Y117.764 E.0494
;WIDTH:0.477571
G1 X83.856 Y117.778 E.02199
;WIDTH:0.448785
G1 X84.291 Y117.792 E.02054
;WIDTH:0.419999
G1 X91.719 Y117.784 E.32608
;WIDTH:0.446299
G1 X92.149 Y117.77 E.0202
;WIDTH:0.472598
G1 X93.52 Y117.756 E.0686
;WIDTH:0.472087
G1 X93.588 Y117.833 E.00514
;WIPE_START
G1 X93.709 Y117.971 E-.2561
G1 X93.708 Y118.788 E-1.1439
;WIPE_END
G1 Z.6 F9000
G1 X82.69 Y126.869 Z.6
G1 Z.2
G1 E1.4 F1800
;WIDTH:0.419999
G1 F900
G1 X82.69 Y130.63 E.16509
G1 X78.31 Y130.63 E.19226
G1 X78.31 Y118.902 E.51482
G1 X78.44 Y118.344 E.02513
G1 X78.701 Y117.925 E.0217
G1 X79.062 Y117.587 E.0217
G1 X79.512 Y117.383 E.0217
G1 X80.015 Y117.301 E.02237
G1 X81.623 Y117.301 E.07056
;WIDTH:0.449038
G1 X82.057 Y117.315 E.02054
;WIDTH:0.478076
G1 X82.491 Y117.33 E.02201
;WIDTH:0.480865
G1 X83.46 Y117.328 E.04936
G1 X83.535 Y117.22 E.0067
;WIDTH:0.450432
G1 X83.61 Y117.112 E.00624
;WIDTH:0.419999
G1 X83.61 Y113.351 E.16509
G1 X92.39 Y113.351 E.38541
G1 X92.39 Y117.112 E.16509
;WIDTH:0.446299
G1 X92.484 Y117.219 E.00671
;WIDTH:0.472598
G1 X92.579 Y117.327 E.00715
G1 X93.52 Y117.327 E.04708
;WIDTH:0.472087
G1 X93.95 Y117.314 E.02149
;WIDTH:0.446043
G1 X94.38 Y117.301 E.02019
;WIDTH:0.419999
G1 X95.698 Y117.301 E.05788
G1 X96.329 Y117.335 E.02774
G1 X96.792 Y117.509 E.0217
G1 X97.194 Y117.797 E.0217
G1 X97.482 Y118.198 E.0217
G1 X97.656 Y118.661 E.0217
G1 X97.69 Y119.094 E.01905
G1 X97.69 Y130.63 E.50639
G1 X93.31 Y130.63 E.19226
G1 X93.31 Y126.869 E.16509
;WIDTH:0.420469
G1 X93.262 Y126.743 E.00595
;WIDTH:0.449168
G1 X93.192 Y126.697 E.00395
;WIDTH:0.477867
G1 X93.121 Y126.652 E.00423
G1 X82.879 Y126.654 E.51862
;WIDTH:0.472312
G1 X82.731 Y126.744 E.00863
;WIDTH:0.429009
G1 X82.703 Y126.831 E.0041
;WIPE_START
G1 X82.699 Y127.831 E-1.4
;WIPE_END
G1 Z.6 F9000
G1 X81.812 Y118.579
G1 Z.6
G1 Z.2
G1 E1.4 F1800
;TYPE:Bottom surface
;WIDTH:0.432778
G1 F2100
G1 X81.194 Y117.96 E.0397
G1 X80.642 Y117.96 E.02502
G1 X81.642 Y118.96 E.06415
G1 X81.641 Y119.511 E.02498
G1 X80.091 Y117.96 E.09949
G1 X79.8 Y117.985 E.01325
G1 X79.619 Y118.04 E.00858
G1 X81.64 Y120.061 E.12973
G1 X81.639 Y120.612 E.02498
G1 X79.285 Y118.257 E.15111
G1 X79.147 Y118.421 E.00971
G1 X79.06 Y118.584 E.00838
G1 X81.639 Y121.162 E.16548
G1 X81.638 Y121.713 E.02498
G1 X78.97 Y119.045 E.17123
G1 X78.97 Y119.596 E.02502
G1 X81.637 Y122.263 E.17118
G1 X81.636 Y122.814 E.02498
G1 X78.97 Y120.147 E.17112
G1 X78.97 Y120.699 E.02502
G1 X81.635 Y123.364 E.17107
G1 X81.634 Y123.915 E.02498
G1 X78.97 Y121.25 E.17102
G1 X78.97 Y121.801 E.02502
G1 X81.634 Y124.465 E.17097
G1 X81.633 Y125.016 E.02498
G1 X78.97 Y122.353 E.17091
G1 X78.97 Y122.904 E.02502
G1 X81.632 Y125.566 E.17086
G1 X81.631 Y126.018 E.02049
G1 X81.649 Y126.135 E.00536
G1 X78.97 Y123.455 E.17195
G1 X78.97 Y124.007 E.02502
G1 X82.03 Y127.067 E.19641
G1 X82.03 Y127.618 E.02502
G1 X78.97 Y124.558 E.19641
G1 X78.97 Y125.11 E.02502
G1 X82.03 Y128.17 E.19641
G1 X82.03 Y128.721 E.02502
G1 X78.97 Y125.661 E.19641
G1 X78.97 Y126.212 E.02502
G1 X82.03 Y129.272 E.19641
G1 X82.03 Y129.824 E.02502
G1 X78.97 Y126.764 E.19641
G1 X78.97 Y127.315 E.02502
G1 X81.625 Y129.97 E.17042
G1 X81.074 Y129.97 E.02502
G1 X78.97 Y127.866 E.13503
G1 X78.97 Y128.418 E.02502
G1 X80.522 Y129.97 E.09965
G1 X79.971 Y129.97 E.02502
G1 X78.97 Y128.969 E.06426
G1 X78.97 Y129.52 E.02502
G1 X79.589 Y130.14 E.03977
G1 E-.54286 F1800
;WIPE_START
G1 F2100
G1 X78.97 Y129.52 E-.75105
G1 X78.97 Y129.396 E-.1061
;WIPE_END
G1 Z.6 F9000
G1 X91.9 Y114.613 Z.6
G1 Z.2
G1 E1.4 F1800
;WIDTH:0.424608
G1 F2100
G1 X91.297 Y114.011 E.03785
G1 X90.758 Y114.011 E.02398
G1 X91.73 Y114.984 E.06111
G1 X91.73 Y115.523 E.02398
G1 X90.218 Y114.011 E.09503
G1 X89.678 Y114.011 E.02398
G1 X91.73 Y116.063 E.12894
G1 X91.73 Y116.603 E.02398
G1 X89.138 Y114.011 E.16286
G1 X88.599 Y114.011 E.02398
G1 X91.711 Y117.124 E.1956
G1 X91.172 Y117.125 E.02396
G1 X88.059 Y114.011 E.19564
G1 X87.519 Y114.011 E.02398
G1 X90.633 Y117.125 E.19568
G1 X90.094 Y117.126 E.02396
G1 X86.979 Y114.011 E.19571
G1 X86.439 Y114.011 E.02398
G1 X89.555 Y117.126 E.19575
G1 X89.015 Y117.127 E.02396
G1 X85.9 Y114.011 E.19579
G1 X85.36 Y114.011 E.02398
G1 X88.476 Y117.127 E.19582
G1 X87.937 Y117.128 E.02396
G1 X84.82 Y114.011 E.19586
G1 X84.28 Y114.011 E.02398
G1 X87.398 Y117.129 E.1959
G1 X86.859 Y117.129 E.02396
G1 X84.27 Y114.541 E.16267
G1 X84.27 Y115.08 E.02398
G1 X86.319 Y117.13 E.12878
G1 X85.78 Y117.13 E.02396
G1 X84.27 Y115.62 E.0949
G1 X84.27 Y116.16 E.02398
G1 X85.241 Y117.131 E.06102
G1 X84.702 Y117.132 E.02396
G1 X84.1 Y116.53 E.0378
G1 E-.54286 F1800
;WIPE_START
M73 P2 R62
G1 F2100
G1 X84.702 Y117.132 E-.7292
G1 X84.851 Y117.131 E-.12794
;WIPE_END
G1 Z.6 F9000
G1 X97.155 Y118.697 Z.6
G1 Z.2
G1 E1.4 F1800
;WIDTH:0.424374
G1 F2100
G1 X96.715 Y118.257 E.02763
G1 X96.57 Y118.138 E.00833
G1 X96.392 Y118.043 E.00893
G1 X96.2 Y117.985 E.00893
G1 X95.884 Y117.966 E.01405
G1 X97.03 Y119.112 E.07196
G1 X97.03 Y119.651 E.02395
G1 X95.343 Y117.964 E.10595
G1 X94.802 Y117.963 E.02403
G1 X97.03 Y120.191 E.13993
G1 X97.03 Y120.73 E.02395
G1 X94.369 Y118.069 E.16714
G1 X94.368 Y118.607 E.02392
G1 X97.03 Y121.27 E.16719
G1 X97.03 Y121.809 E.02395
G1 X94.367 Y119.146 E.16724
G1 X94.366 Y119.685 E.02392
G1 X97.03 Y122.349 E.1673
G1 X97.03 Y122.888 E.02395
G1 X94.365 Y120.223 E.16735
G1 X94.364 Y120.762 E.02392
G1 X97.03 Y123.428 E.1674
G1 X97.03 Y123.967 E.02395
G1 X94.364 Y121.301 E.16745
G1 X94.363 Y121.839 E.02392
G1 X97.03 Y124.506 E.1675
G1 X97.03 Y125.046 E.02395
G1 X94.362 Y122.378 E.16755
G1 X94.361 Y122.917 E.02392
G1 X97.03 Y125.585 E.1676
G1 X97.03 Y126.125 E.02395
G1 X94.36 Y123.455 E.16765
G1 X94.36 Y123.994 E.02392
G1 X97.03 Y126.664 E.1677
G1 X97.03 Y127.204 E.02395
G1 X94.359 Y124.532 E.16775
G1 X94.358 Y125.071 E.02392
G1 X97.03 Y127.743 E.1678
G1 X97.03 Y128.283 E.02395
G1 X94.357 Y125.61 E.16785
G1 X94.357 Y126.007 E.01764
G1 X94.338 Y126.13 E.00553
G1 X97.03 Y128.822 E.16905
G1 X97.03 Y129.362 E.02395
G1 X94.179 Y126.51 E.17905
G1 X94.078 Y126.628 E.0069
G1 X93.954 Y126.718 E.0068
G1 X93.967 Y126.838 E.00536
G1 X97.03 Y129.901 E.19236
G1 X97.03 Y129.97 E.00307
G1 X96.56 Y129.97 E.02089
G1 X93.97 Y127.38 E.16264
G1 X93.97 Y127.92 E.02395
G1 X96.02 Y129.97 E.12876
G1 X95.481 Y129.97 E.02395
G1 X93.97 Y128.459 E.09489
G1 X93.97 Y128.999 E.02395
G1 X94.941 Y129.97 E.06101
G1 X94.402 Y129.97 E.02395
G1 X93.8 Y129.368 E.03779
; stop printing object tanklink.stl id:4981036404796437809 copy 0
; printing object tanklink.stl id:3 copy 0
G1 E-.54286 F1800
;WIPE_START
G1 F2100
G1 X94.402 Y129.97 E-.72943
G1 X94.551 Y129.97 E-.12771
;WIPE_END
G1 Z.6 F9000
G1 X115.793 Y117.678 Z.6
G1 Z.2
G1 E1.4 F1800
;TYPE:Inner wall
;WIDTH:0.419999
G1 F900
G1 X118.002 Y117.678 E.097
G1 X118.501 Y117.781 E.02235
G1 X118.827 Y117.983 E.01683
G1 X119.089 Y118.263 E.01683
G1 X119.247 Y118.612 E.01683
G1 X119.313 Y119.094 E.02134
G1 X119.313 Y130.253 E.48984
G1 X115.687 Y130.253 E.15916
M73 P2 R61
G1 X115.673 Y126.746 E.15396
G1 X115.571 Y126.548 E.00977
G1 X115.786 Y126.491 E.00977
G1 X115.887 Y126.419 E.00545
G1 X116.049 Y126.164 E.01325
G1 X116.074 Y126 E.00729
G1 X116.086 Y117.971 E.35242
G1 X115.821 Y117.706 E.01645
;WIPE_START
G1 X116.821 Y117.693 E-1.4
;WIPE_END
G1 Z.6 F9000
G1 X105.733 Y117.415 Z.6
G1 Z.2
G1 E1.4 F1800
G1 F900
G1 X105.987 Y117.112 E.01738
G1 X105.987 Y113.728 E.14854
G1 X114.013 Y113.728 E.3523
G1 X114.013 Y117.112 E.14854
G1 X114.307 Y117.406 E.01825
G1 X105.773 Y117.415 E.37462
;WIPE_START
G1 X105.987 Y117.112 E-.52007
G1 X105.987 Y116.484 E-.87993
;WIPE_END
G1 Z.6 F9000
G1 X104.182 Y117.678 Z.6
G1 Z.2
G1 E1.4 F1800
G1 F900
G1 X103.926 Y117.982 E.01743
G1 X103.914 Y126.087 E.3558
G1 X104.009 Y126.324 E.01122
G1 X104.217 Y126.512 E.01229
G1 X104.418 Y126.561 E.0091
G1 X104.326 Y126.747 E.0091
G1 X104.313 Y126.869 E.0054
G1 X104.313 Y130.253 E.14853
G1 X100.687 Y130.253 E.15916
G1 X100.687 Y118.988 E.49448
G1 X100.79 Y118.489 E.02235
G1 X100.993 Y118.164 E.01683
G1 X101.272 Y117.902 E.01683
G1 X101.622 Y117.743 E.01683
G1 X102.034 Y117.678 E.01832
G1 X104.142 Y117.678 E.09253
;WIPE_START
G1 X103.926 Y117.982 E-.52157
G1 X103.925 Y118.609 E-.87843
;WIPE_END
G1 Z.6 F9000
G1 X115.615 Y117.863 Z.6
G1 Z.2
G1 E1.4 F1800
;TYPE:Outer wall
;WIDTH:0.446043
G1 F900
G1 X115.709 Y117.971 E.00671
;WIDTH:0.419999
G1 X115.697 Y125.999 E.35242
G1 X115.601 Y126.163 E.00833
;WIDTH:0.448933
G1 X115.361 Y126.19 E.01141
;WIDTH:0.477867
G1 X115.121 Y126.217 E.01222
G1 X104.878 Y126.225 E.51862
;WIDTH:0.472312
G1 X104.635 Y126.201 E.01221
;WIDTH:0.446156
G1 X104.392 Y126.178 E.01146
;WIDTH:0.419999
G1 X104.291 Y126.039 E.00752
G1 X104.303 Y117.982 E.35368
;WIDTH:0.450686
G1 X104.379 Y117.874 E.00624
;WIDTH:0.481373
G1 X104.454 Y117.766 E.00671
G1 X105.422 Y117.764 E.0494
;WIDTH:0.477571
G1 X105.856 Y117.778 E.02199
;WIDTH:0.448785
G1 X106.291 Y117.792 E.02054
;WIDTH:0.419999
G1 X113.719 Y117.784 E.32608
;WIDTH:0.446299
G1 X114.149 Y117.77 E.0202
;WIDTH:0.472598
G1 X115.52 Y117.756 E.0686
;WIDTH:0.472087
G1 X115.588 Y117.833 E.00514
;WIPE_START
G1 X115.709 Y117.971 E-.2561
G1 X115.708 Y118.788 E-1.1439
;WIPE_END
G1 Z.6 F9000
G1 X104.69 Y126.869 Z.6
G1 Z.2
G1 E1.4 F1800
;WIDTH:0.419999
G1 F900
G1 X104.69 Y130.63 E.16509
G1 X100.31 Y130.63 E.19226
G1 X100.31 Y118.902 E.51482
G1 X100.44 Y118.344 E.02513
G1 X100.701 Y117.925 E.0217
G1 X101.062 Y117.587 E.0217
G1 X101.512 Y117.383 E.0217
G1 X102.015 Y117.301 E.02237
G1 X103.623 Y117.301 E.07056
;WIDTH:0.449038
G1 X104.057 Y117.315 E.02054
;WIDTH:0.478076
G1 X104.491 Y117.33 E.02201
;WIDTH:0.480865
G1 X105.46 Y117.328 E.04936
G1 X105.535 Y117.22 E.0067
;WIDTH:0.450432
G1 X105.61 Y117.112 E.00624
;WIDTH:0.419999
G1 X105.61 Y113.351 E.16509
G1 X114.39 Y113.351 E.38541
G1 X114.39 Y117.112 E.16509
;WIDTH:0.446299
G1 X114.484 Y117.219 E.00671
;WIDTH:0.472598
